img/pay/visa.svg

<?xml version="1.0" encoding="UTF-8"?>
<svg width="100px" height="30px" viewBox="0 0 100 30" version="1.1" xmlns="http://www.w3.org/2000/svg" xmlns:xlink="http://www.w3.org/1999/xlink">
    <!-- Generator: Sketch 50.2 (55047) - http://www.bohemiancoding.com/sketch -->
    <title>Logo_Visa</title>
    <desc>Created with Sketch.</desc>
    <defs></defs>
    <g id="Page-1" stroke="none" stroke-width="1" fill="none" fill-rule="evenodd">
        <g id="Desktop-HD-Copy" transform="translate(-943.000000, -4152.000000)" fill-rule="nonzero">
            <g id="Финиш" transform="translate(0.000000, 3772.000000)">
                <g id="Group-8" transform="translate(708.000000, 370.000000)">
                    <g id="Logo_Visa" transform="translate(235.000000, 10.000000)">
                        <polygon id="polygon10" fill="#004686" points="35.5769231 30 40.7556266 0.681818182 49.0384615 0.681818182 43.8563885 30"></polygon>
                        <path d="M74.0384066,1.2205514 C72.3877597,0.630632172 69.8011555,1.18426513e-07 66.5708865,1.18426513e-07 C58.3387009,-0.000788965371 52.5392421,3.94178522 52.4901547,9.59130641 C52.4438465,13.7672936 56.6301425,16.097146 59.7905321,17.4873452 C63.0335755,18.9108494 64.1237257,19.8201869 64.1082866,21.0925127 C64.0878709,23.0396517 61.5185268,23.9305308 59.1237961,23.9305308 C55.7891344,23.9302152 54.0174753,23.490222 51.2813297,22.4050779 L50.2077828,21.942359 L49.0384615,28.4486654 C50.98472,29.260317 54.5829579,29.9633945 58.3191314,30 C67.0771369,29.9995266 72.7625259,26.1031884 72.8271577,20.070487 C72.858694,16.7637535 70.6388981,14.2481508 65.8323379,12.1738148 C62.920249,10.8285891 61.1364816,9.93218686 61.1554036,8.57085873 C61.1555696,7.36245373 62.6649709,6.07088059 65.9266092,6.07088059 C68.6514763,6.02969047 70.624616,6.59546327 72.162245,7.18428233 L72.9091466,7.51901185 L74.0384615,1.22054807 L74.0384066,1.2205514 Z" id="path12" fill="#004686"></path>
                        <path d="M93.4982247,0.681850654 L87.2904387,0.681850654 C85.3676629,0.681850654 83.9284969,1.20544923 83.0838477,3.11586014 L71.1538462,29.9993618 L79.5889459,29.9993618 C79.5889459,29.9993618 80.9684213,26.3851442 81.2804756,25.5917135 C82.2025772,25.5917135 90.3966699,25.6042976 91.5681017,25.6042976 C91.8087887,26.6309444 92.5455746,30 92.5455746,30 L100,29.9993629 L93.4982348,0.681818182 L93.4982247,0.681850654 Z M83.5921236,19.5907439 C84.2565742,17.9003178 86.7925954,11.3907891 86.7925954,11.3907891 C86.7455461,11.4683655 87.4519255,9.69224199 87.8577651,8.59088795 L88.4013922,11.119354 C88.4013922,11.119354 89.9389795,18.1227018 90.2604769,19.5912262 L83.5921258,19.5907484 L83.5921236,19.5907439 Z" id="path14" fill="#004686"></path>
                        <path d="M28.8381298,0.681818182 L20.8324813,20.7065385 L19.9793467,16.637574 C18.4890898,11.9459549 13.8451513,6.86433029 8.65384615,4.31988582 L15.9743142,30 L24.6262103,29.9899546 L37.5,0.681818182 L28.83817,0.681832946 L28.8381298,0.681818182 Z" id="path16" fill="#004686"></path>
                        <path d="M13.5100048,0.68185125 L0.106147241,0.68185125 L0,1.28201646 C10.427933,3.66765331 17.3279984,9.43496229 20.1923077,16.3636364 L17.2776479,3.11597706 C16.7745665,1.29059213 15.315006,0.745992473 13.5100037,0.681818182 L13.5100048,0.68185125 Z" id="path18" fill="#EF9B11"></path>
                    </g>
                </g>
            </g>
        </g>
    </g>
</svg>

<svg width="100" height="30" xmlns="http://www.w3.org/2000/svg"><g fill="none"><path fill="#004686" d="M35.577 30L40.756.682h8.282L43.856 30zM74.038 1.22C72.388.63 69.801 0 66.571 0c-8.232 0-14.032 3.942-14.08 9.591-.047 4.176 4.14 6.506 7.3 7.896 3.243 1.424 4.333 2.333 4.317 3.606-.02 1.947-2.59 2.838-4.984 2.838-3.335 0-5.107-.44-7.843-1.526l-1.073-.463-1.17 6.507c1.947.811 5.545 1.514 9.281 1.551 8.758 0 14.444-3.897 14.508-9.93.032-3.306-2.188-5.822-6.995-7.896-2.912-1.345-4.696-2.242-4.677-3.603 0-1.209 1.51-2.5 4.772-2.5 2.724-.041 4.698.524 6.235 1.113l.747.335 1.13-6.298zm19.46-.538H87.29c-1.922 0-3.362.523-4.206 2.434l-11.93 26.883h8.435s1.38-3.614 1.691-4.407c.923 0 9.117.012 10.288.012.24 1.027.978 4.396.978 4.396H100L93.498.681zM83.592 19.59c.665-1.69 3.2-8.2 3.2-8.2-.046.077.66-1.699 1.066-2.8l.543 2.528 1.86 8.472h-6.669zM28.838.682l-8.006 20.025-.853-4.07C18.49 11.947 13.845 6.865 8.654 4.32L15.974 30l8.652-.01L37.5.682h-8.662z"/><path d="M13.51.682H.106l-.106.6c10.428 2.386 17.328 8.153 20.192 15.082L17.278 3.116C16.775 1.291 15.315.746 13.51.682z" fill="#EF9B11"/></g></svg>
